X:21
T:Threepenny Hop. Ca1758.045, The
M:6/8
L:1/8
Q:3/8=120
B:Cahusac,T. 24 Country Dances for the Year 1758
Z:vmp.Mike Hicken 2015 www.village-music-project.org.uk
N:* There is no repeat sign shown here in the original.
N:Threepenny Hop = as opposed to an exclusive subscription dance or an assembly
K:D
d3 DFA|dfe d2B|G2b F2a|efd cBA|
d3 DFA|dfe {f}e2d|cea EB^g|a3A3 :|
|: Ace gec|Adf agf|f2e e2d|ced cBA|
BGB dBG|AFA dfa|gfe ABc|d3D3 "*" :|
W:
W: The 1st. and 2d. Cu. foot it & Right
W: and Left half round .|  the same back
W: again :|  Right hands across all 4
W: the same back again :|  Set across
W: and turn .|  the Wo. do the same :|
W: Cross over and half figure & hands
W: all six round :|

